X:41
T:Wild Irish Man. LIT.041
M:2/4
Q:1/4=140
L:1/8
B:Wm. Litten MS, 1802
Z:Village Music Project 2017 Anne Wride
K:D
A |: de fd | ge fd | de fd | c2e2 |
de fd | ge fd | fa ge | d2 d2 :|
|: fd cB | AB cA | AB cA | B2g2 |
fd cB | AB cA | fa ge | d2d2 :|

